svgs/sharp-solid/rug.svg

<svg xmlns="http://www.w3.org/2000/svg" viewBox="0 0 640 512"><!--! Font Awesome Pro 6.6.0 by @fontawesome - https://fontawesome.com License - https://fontawesome.com/license (Commercial License) Copyright 2024 Fonticons, Inc. --><path d="M24 64l32 0 24 0 0 24 0 64 0 48 0 32 0 48 0 32 0 48 0 64 0 24-24 0-32 0L0 448l0-48 24 0 8 0 0-40-8 0L0 360l0-48 24 0 8 0 0-32-8 0L0 280l0-48 24 0 8 0 0-32-8 0L0 200l0-48 24 0 8 0 0-40-8 0L0 112 0 64l24 0zm88 0l416 0 0 384-416 0 0-384zm528 0l0 48-24 0-8 0 0 40 8 0 24 0 0 48-24 0-8 0 0 32 8 0 24 0 0 48-24 0-8 0 0 32 8 0 24 0 0 48-24 0-8 0 0 40 8 0 24 0 0 48-24 0-32 0-24 0 0-24 0-64 0-48 0-32 0-48 0-32 0-48 0-64 0-24 24 0 32 0 24 0z"/></svg>

<svg xmlns="http://www.w3.org/2000/svg" viewBox="0 0 640 512"><!--! Font Awesome Pro 6.4.2 by @fontawesome - https://fontawesome.com License - https://fontawesome.com/license (Commercial License) Copyright 2023 Fonticons, Inc. --><path d="M24 64H56 80V88v64 48 32 48 32 48 64 24H56 24 0V400H24h8V360H24 0V312H24h8V280H24 0V232H24h8V200H24 0V152H24h8V112H24 0V64H24zm88 0H528V448H112V64zm528 0v48H616h-8v40h8 24v48H616h-8v32h8 24v48H616h-8v32h8 24v48H616h-8v40h8 24v48H616 584 560V424 360 312 280 232 200 152 88 64h24 32 24z"/></svg>
